projects/js-packages/social-logos/src/svg/tripadvisor.svg

<svg enable-background="new 0 0 24 24" viewBox="0 0 24 24" xmlns="http://www.w3.org/2000/svg"><path d="m21.01 9.859c.236-1.002.985-2.003.985-2.003l-3.341-.002c-1.875-1.211-4.152-1.854-6.675-1.854-2.616 0-4.979.659-6.844 1.877l-3.135.003s.74.988.98 1.983c-.611.831-.977 1.852-.977 2.961 0 2.761 2.247 5.003 5.009 5.003 1.578 0 2.985-.732 3.904-1.875l1.065 1.592 1.076-1.606c.483.615 1.106 1.112 1.838 1.448 1.216.559 2.576.614 3.831.151 2.591-.956 3.92-3.842 2.963-6.431-.169-.458-.401-.875-.679-1.247zm-13.998 6.96c-2.204 0-3.998-1.793-3.998-3.995 0-2.205 1.794-3.997 3.998-3.997 2.203 0 3.996 1.793 3.996 3.997-.001 2.202-1.794 3.995-3.996 3.995zm4.987-4.36c-.185-2.558-2.296-4.587-4.889-4.638 1.434-.613 3.081-.947 4.867-.947 1.798 0 3.421.324 4.853.966-.525.016-1.056.111-1.576.302-1.255.465-2.254 1.389-2.814 2.604-.252.549-.395 1.129-.441 1.713zm6.288 4.134c-1.001.369-2.087.326-3.058-.122-.97-.446-1.707-1.244-2.075-2.245v-.001c-.37-1.001-.328-2.087.118-3.056.447-.969 1.244-1.707 2.246-2.077.452-.167.916-.246 1.372-.247 1.63-.003 3.166.997 3.763 2.613.762 2.065-.298 4.369-2.366 5.135z"/><path d="m6.949 10.307c-1.365 0-2.475 1.11-2.475 2.472 0 1.363 1.11 2.474 2.475 2.474 1.362 0 2.47-1.11 2.47-2.474 0-1.363-1.108-2.472-2.47-2.472zm0 4.094c-.896 0-1.624-.729-1.624-1.623 0-.893.729-1.62 1.624-1.62.892 0 1.618.727 1.618 1.62 0 .895-.726 1.623-1.618 1.623z"/><path d="m16.981 10.307c-1.364 0-2.474 1.11-2.474 2.472 0 1.363 1.11 2.474 2.474 2.474 1.363 0 2.472-1.11 2.472-2.474-0-1.363-1.109-2.472-2.472-2.472zm0 4.094c-.894 0-1.622-.729-1.622-1.623 0-.893.728-1.62 1.622-1.62.893 0 1.62.727 1.62 1.62-0 .895-.727 1.623-1.62 1.623z"/><path d="m7.778 12.778c0 .458-.373.833-.832.833-.461 0-.832-.374-.832-.833 0-.46.372-.832.832-.832.458 0 .832.373.832.832"/><path d="m16.981 11.947c-.461 0-.831.372-.831.832 0 .458.37.833.831.833.459 0 .831-.374.831-.833 0-.46-.371-.832-.831-.832z"/></svg>

<?xml version="1.0" encoding="iso-8859-1"?>
<!-- Generator: Adobe Illustrator 23.0.4, SVG Export Plug-In . SVG Version: 6.00 Build 0)  -->
<svg version="1.1" xmlns="http://www.w3.org/2000/svg" xmlns:xlink="http://www.w3.org/1999/xlink" x="0px" y="0px"
	 viewBox="0 0 24 24" style="enable-background:new 0 0 24 24;" xml:space="preserve">
<g id="Artwork">
	<g id="Layer_1_1_">
	</g>
	<g id="Layer_1_2_">
	</g>
	<g>
		<path d="M21.01,9.859c0.236-1.002,0.985-2.003,0.985-2.003l-3.341-0.002C16.779,6.643,14.502,6,11.979,6l0,0
			C9.363,6,7,6.659,5.135,7.877L2,7.88c0,0,0.74,0.988,0.98,1.983c-0.611,0.831-0.977,1.852-0.977,2.961
			c0,2.761,2.247,5.003,5.009,5.003c1.578,0,2.985-0.732,3.904-1.875l1.065,1.592l1.076-1.606c0.483,0.615,1.106,1.112,1.838,1.448
			c1.216,0.559,2.576,0.614,3.831,0.151c2.591-0.956,3.92-3.842,2.963-6.431C21.52,10.648,21.288,10.231,21.01,9.859z M7.012,16.819
			c-2.204,0-3.998-1.793-3.998-3.995c0-2.205,1.794-3.997,3.998-3.997c2.203,0,3.996,1.793,3.996,3.997
			C11.007,15.026,9.214,16.819,7.012,16.819z M11.999,12.459C11.814,9.901,9.703,7.872,7.11,7.821
			c1.434-0.613,3.081-0.947,4.867-0.947c1.798,0,3.421,0.324,4.853,0.966h0c-0.525,0.016-1.056,0.111-1.576,0.302
			c-1.255,0.465-2.254,1.389-2.814,2.604C12.188,11.295,12.045,11.875,11.999,12.459z M18.287,16.593
			c-1.001,0.369-2.087,0.326-3.058-0.122c-0.97-0.446-1.707-1.244-2.075-2.245v-0.001c-0.37-1.001-0.328-2.087,0.118-3.056
			c0.447-0.969,1.244-1.707,2.246-2.077c0.452-0.167,0.916-0.246,1.372-0.247h0c1.63-0.003,3.166,0.997,3.763,2.613
			C21.415,13.523,20.355,15.827,18.287,16.593z"/>
		<path d="M6.949,10.307c-1.365,0-2.475,1.11-2.475,2.472c0,1.363,1.11,2.474,2.475,2.474c1.362,0,2.47-1.11,2.47-2.474
			C9.419,11.416,8.311,10.307,6.949,10.307z M6.949,14.401c-0.896,0-1.624-0.729-1.624-1.623c0-0.893,0.729-1.62,1.624-1.62
			c0.892,0,1.618,0.727,1.618,1.62C8.567,13.673,7.841,14.401,6.949,14.401z"/>
		<path d="M16.981,10.307c-1.364,0-2.474,1.11-2.474,2.472c0,1.363,1.11,2.474,2.474,2.474c1.363,0,2.472-1.11,2.472-2.474
			C19.453,11.416,18.344,10.307,16.981,10.307z M16.981,14.401c-0.894,0-1.622-0.729-1.622-1.623c0-0.893,0.728-1.62,1.622-1.62
			c0.893,0,1.62,0.727,1.62,1.62C18.601,13.673,17.874,14.401,16.981,14.401z"/>
		<path d="M7.778,12.778c0,0.458-0.373,0.833-0.832,0.833c-0.461,0-0.832-0.374-0.832-0.833c0-0.46,0.372-0.832,0.832-0.832
			C7.404,11.946,7.778,12.319,7.778,12.778"/>
		<path d="M16.981,11.947c-0.461,0-0.831,0.372-0.831,0.832c0,0.458,0.37,0.833,0.831,0.833c0.459,0,0.831-0.374,0.831-0.833
			C17.812,12.319,17.441,11.947,16.981,11.947z"/>
	</g>
</g>
<g id="Layer_1">
</g>
</svg>
